!!!!SEGMENT: pl-cz--iii-753--001-014_zebrowski-marcin-jozef--vesperae-in-d-deposuit-potentes.krn
!!!cenid: 17xx:2385
!!!COM: Żebrowski, Marcin Józef
!!!COM-rismid: pe30020322
!!!CDT: 1702-1770/06/29
!!!CNT: Polish
!!!OPR: Vesperae in D
!!!OTL: Deposuit potentes
!!!OMV: 014
!!!PDT:
!!!AGN:
!!!SMS-siglum: PL-CZ
!!!SMS-shelfmark: III-753
!!!SMS-shelfwork: 001-014 M
!!!SMS-variant:
!!!SMS-altvar:
!!!NIFC-rismid: 300033505
!!!URL-scan: https://repozytorium.nifc.pl/islandora/object/pl-cz%3A25492/datastream/PDF/view
!!!ONB-nifc: UWAGA: części Nieszporów: 1. Dixit Dominus, 2. Confitebor, 3. Beatus vir, 4. Laudate pueri, 5. Laudate Dominum, 6. Credidi, 7. In convertendo, 8. Domine probasti me, 9. Laetatus sum, 10. Nisi Dominus, 11. Lauda Jerusalem, 12. Magnificat, 13. Quia respexit, 14. Deposuit potentes, 15. Gloria patri
!!!key: e
**kern	**fba	**kern	**kern	**kern	**text	**kern	**kern	**kern	**kern	**kern	**kern
*part10	*	*part9	*part8	*part7	*part7	*part6	*part5	*part4	*part3	*part2	*part1
*group5	*	*group4	*group4	*group3	*	*group3	*group3	*group3	*group2	*group2	*group1
*staff10	*	*staff9	*staff8	*staff7	*staff7	*staff6	*staff5	*staff4	*staff3	*staff2	*staff1
*I"Organo.	*	*I"Violino Secondo.	*I"Violino Primo.	*I"Baſso.	*	*I"Tenore.	*I"Alto.	*I"Canto.	*I"Clarino Secondo ex D.	*I"Clarino Primo ex D	*I"Baſsone.
*I'org	*	*I'vl 2	*I'vl 1	*I'B	*	*I'T	*I'A	*I'S	*I'clno 2 in D	*I'clno 1 in D	*I'fag
*Iorgan	*	*Ivioln	*Ivioln	*Ibass	*	*Itenor	*Ialto	*Isoprn	*Iclrno	*Iclrno	*Ifagot
*ICklav	*	*ICstr	*ICstr	*ICvox	*	*ICvox	*ICvox	*ICvox	*ICbras	*ICbras	*ICww
*IGcont	*	*	*	*	*	*	*	*	*	*	*
*clefF4	*	*clefG2	*clefG2	*clefF4	*	*clefC4	*clefC3	*clefC1	*clefG2	*clefG2	*clefF4
*	*	*	*	*	*	*	*	*	*ITrd-1c-2	*ITrd-1c-2	*
*k[f#]	*	*k[f#]	*k[f#]	*k[f#]	*	*k[f#]	*k[f#]	*k[f#]	*k[f#]	*k[f#]	*k[f#]
*e:	*	*e:	*e:	*e:	*	*e:	*e:	*e:	*e:	*e:	*e:
*M2/4	*	*M2/4	*M2/4	*M2/4	*	*M2/4	*M2/4	*M2/4	*M2/4	*M2/4	*M2/4
=1	=1	=1	=1	=1	=1	=1	=1	=1	=1	=1	=1
*2\right	*	*2\right	*2\right	*2\right	*2\right	*2\right	*2\right	*2\right	*2\right	*2\right	*2\right
!	!	!	!	!LO:TX:b:B:t=Allo.	!	!	!	!	!	!	!
!LO:TX:b:B:t=Allo.	!	!	!	!LO:TX:a:t=Solo.	!	!	!	!	!	!	!LO:TX:a:B:t=Allo.
!LO:TX:b:t=Solo.	!	!LO:TX:a:t=Deposuit Tacet	!LO:TX:a:t=Deposuit tacet	!LO:TX:a:t=1.	!	!LO:TX:a:t=Quia respexit et reliqua tacent.	!LO:TX:a:t=Quia respexit et reliqua tacent.	!LO:TX:a:t=Depoſuit tacet..	!LO:TX:a:t=Quia respexit et reliqua tacet	!LO:TX:a:t=Quia respexit et reliqua tacent.	!LO:TX:a:t=Solo.
4.E\	.	2ryy	2ryy	2r	.	2ryy	2ryy	2ryy	2ryy	2ryy	4.E\
8F#\	x x #6|	.	.	.	.	.	.	.	.	.	8F#\
=2	=2	=2	=2	=2	=2	=2	=2	=2	=2	=2	=2
8G\L	x x 6	2ryy	2ryy	4.E\	De-	2ryy	2ryy	2ryy	2ryy	2ryy	8G\L
8F#\	x x 7	.	.	.	.	.	.	.	.	.	8F#\
8E\	x x 8	.	.	.	.	.	.	.	.	.	8E\
8D#X\J	x x 6	.	.	8F#\	.	.	.	.	.	.	8D#X\J
=3	=3	=3	=3	=3	=3	=3	=3	=3	=3	=3	=3
4.E\	.	2ryy	2ryy	(8G\L	.	2ryy	2ryy	2ryy	2ryy	2ryy	4.E\
.	.	.	.	8F#\J)	.	.	.	.	.	.	.
.	.	.	.	8E\	-po-	.	.	.	.	.	.
8F#\	x x 6\	.	.	8D#X/	-su-	.	.	.	.	.	8F#\
=4	=4	=4	=4	=4	=4	=4	=4	=4	=4	=4	=4
8G\L	x x 6	2ryy	2ryy	4.E\	-it	2ryy	2ryy	2ryy	2ryy	2ryy	8G\L
8F#\	x x 7	.	.	.	.	.	.	.	.	.	8F#\
8E\	x x 8	.	.	.	.	.	.	.	.	.	8E\
8D#X\J	x x 6	.	.	8F#\	po-	.	.	.	.	.	8D#X\J
!	!	!	!	!	!	!	!	!	!	!	!LO:LB:g=original
=5	=5	=5	=5	=5	=5	=5	=5	=5	=5	=5	=5
4.E\	.	2ryy	2ryy	(8G\L	.	2ryy	2ryy	2ryy	2ryy	2ryy	4.E\
.	.	.	.	8F#\J)	.	.	.	.	.	.	.
.	.	.	.	(8E\L	-ten-	.	.	.	.	.	.
8F#\	x x 6\	.	.	8D#X\J)	.	.	.	.	.	.	8F#\
=6	=6	=6	=6	=6	=6	=6	=6	=6	=6	=6	=6
4G\	x x 6	2ryy	2ryy	8E\	-tes	2ryy	2ryy	2ryy	2ryy	2ryy	4G\
.	.	.	.	8c\	de	.	.	.	.	.	.
8r	.	.	.	[4B\	se-	.	.	.	.	.	8r
8E\	.	.	.	.	.	.	.	.	.	.	8E\
!	!	!	!	!LO:LB:g=original	!	!	!	!	!	!	!
=7	=7	=7	=7	=7	=7	=7	=7	=7	=7	=7	=7
4D#X\	x x 6	2ryy	2ryy	8B\L]	.	2ryy	2ryy	2ryy	2ryy	2ryy	4D#X/
.	.	.	.	8c\J	.	.	.	.	.	.	.
8r	.	.	.	[4B\	.	.	.	.	.	.	8r
8E\	.	.	.	.	.	.	.	.	.	.	8E\
=8	=8	=8	=8	=8	=8	=8	=8	=8	=8	=8	=8
4D#X/	x x 6	2ryy	2ryy	8B\]	.	2ryy	2ryy	2ryy	2ryy	2ryy	4D#X/
.	.	.	.	4A\	.	.	.	.	.	.	.
4BB/	x x #7r	.	.	.	.	.	.	.	.	.	4BB/
.	.	.	.	16G\LL	.	.	.	.	.	.	.
.	.	.	.	16F#\JJ	.	.	.	.	.	.	.
!LO:LB:g=original	!	!	!	!	!	!	!	!	!	!	!
=9	=9	=9	=9	=9	=9	=9	=9	=9	=9	=9	=9
4E\	.	2ryy	2ryy	8.GT\L	.	2ryy	2ryy	2ryy	2ryy	2ryy	4E\
.	.	.	.	16F#\Jk	.	.	.	.	.	.	.
4r	.	.	.	4E\	-de	.	.	.	.	.	4r
=10	=10	=10	=10	=10	=10	=10	=10	=10	=10	=10	=10
!	!	!	!	!LO:TX:a:t=1.	!	!	!	!	!	!	!
4.G\	x x 5	2ryy	2ryy	2r	.	2ryy	2ryy	2ryy	2ryy	2ryy	4.G\
8A\	x x 6	.	.	.	.	.	.	.	.	.	8A\
=11	=11	=11	=11	=11	=11	=11	=11	=11	=11	=11	=11
8B\L	x x 6	2ryy	2ryy	4.G\	De-	2ryy	2ryy	2ryy	2ryy	2ryy	8B\L
8A\	x x 7	.	.	.	.	.	.	.	.	.	8A\
8G\	x x 8	.	.	.	.	.	.	.	.	.	8G\
8F#\J	x x 6	.	.	8A\	.	.	.	.	.	.	8F#\J
=12	=12	=12	=12	=12	=12	=12	=12	=12	=12	=12	=12
4.G\	.	2ryy	2ryy	(8B\L	.	2ryy	2ryy	2ryy	2ryy	2ryy	4.G\
.	.	.	.	8A\J)	.	.	.	.	.	.	.
.	.	.	.	8G\	-po-	.	.	.	.	.	.
8A\	x x 6	.	.	8F#\	-su-	.	.	.	.	.	8A\
!	!	!	!	!LO:LB:g=original	!	!	!	!	!	!	!
=13	=13	=13	=13	=13	=13	=13	=13	=13	=13	=13	=13
.	.	.	.	8qqF#/	.	.	.	.	.	.	.
8B\L	x x 6	2ryy	2ryy	4.G\	-it	2ryy	2ryy	2ryy	2ryy	2ryy	8B\L
8A\	x x 7	.	.	.	.	.	.	.	.	.	8A\
8G\	x x 8	.	.	.	.	.	.	.	.	.	8G\
8F#\J	x x 6	.	.	8A\	po-	.	.	.	.	.	8F#\J
!	!	!	!	!	!	!	!	!	!	!	!LO:LB:g=original
=14	=14	=14	=14	=14	=14	=14	=14	=14	=14	=14	=14
4.G\	.	2ryy	2ryy	(8B\L	.	2ryy	2ryy	2ryy	2ryy	2ryy	4.G\
.	.	.	.	8A\J)	.	.	.	.	.	.	.
.	.	.	.	(8G\L	-ten-	.	.	.	.	.	.
8A\	x x 6	.	.	8F#\J)	.	.	.	.	.	.	8A\
=15	=15	=15	=15	=15	=15	=15	=15	=15	=15	=15	=15
4B\	x x 6	2ryy	2ryy	8G\	-tes	2ryy	2ryy	2ryy	2ryy	2ryy	4B\
.	.	.	.	8e\	de	.	.	.	.	.	.
8r	.	.	.	[4d\	se-	.	.	.	.	.	8r
8G\	.	.	.	.	.	.	.	.	.	.	8G\
=16	=16	=16	=16	=16	=16	=16	=16	=16	=16	=16	=16
4F#\	x x 6	2ryy	2ryy	8d\L]	.	2ryy	2ryy	2ryy	2ryy	2ryy	4F#\
.	.	.	.	8e\J	.	.	.	.	.	.	.
8r	.	.	.	[4d\	.	.	.	.	.	.	8r
8G\	.	.	.	.	.	.	.	.	.	.	8G\
=17	=17	=17	=17	=17	=17	=17	=17	=17	=17	=17	=17
4F#\	x x 6	2ryy	2ryy	8d\]	.	2ryy	2ryy	2ryy	2ryy	2ryy	4F#\
.	.	.	.	4c\	.	.	.	.	.	.	.
!LO:LB:g=original	!	!	!	!	!	!	!	!	!	!	!
4D\	x x 7	.	.	.	.	.	.	.	.	.	4D\
.	.	.	.	16B\LL	.	.	.	.	.	.	.
.	.	.	.	16A\JJ	.	.	.	.	.	.	.
=18	=18	=18	=18	=18	=18	=18	=18	=18	=18	=18	=18
4G\	.	2ryy	2ryy	8.Bt\L	.	2ryy	2ryy	2ryy	2ryy	2ryy	4G\
.	.	.	.	16A\Jk	.	.	.	.	.	.	.
4r	.	.	.	4G\	-de	.	.	.	.	.	4r
!	!	!	!	!LO:LB:g=original	!	!	!	!	!	!	!
=19	=19	=19	=19	=19	=19	=19	=19	=19	=19	=19	=19
.	.	.	.	16qqB\L	.	.	.	.	.	.	.
.	.	.	.	16qqc\J	.	.	.	.	.	.	.
8r	.	2ryy	2ryy	4d\	et	2ryy	2ryy	2ryy	2ryy	2ryy	8r
8BB|/L	x x 6	.	.	.	.	.	.	.	.	.	8BB|/L
8D|/	.	.	.	[4BB/	ex-	.	.	.	.	.	8D|/
8G|/J	.	.	.	.	.	.	.	.	.	.	8G|/J
=20	=20	=20	=20	=20	=20	=20	=20	=20	=20	=20	=20
!	!	!	!	!LO:TUP:b	!	!	!	!	!	!	!
4B\	x x 6	2ryy	2ryy	12BB/L]	.	2ryy	2ryy	2ryy	2ryy	2ryy	4B\
.	.	.	.	12D|/	.	.	.	.	.	.	.
.	.	.	.	12G|/J	.	.	.	.	.	.	.
!	!	!	!	!LO:TUP:a:problem:klamra łukowa	!	!	!	!	!	!	!
4r	.	.	.	12B\L	.	.	.	.	.	.	4r
.	.	.	.	12c\	.	.	.	.	.	.	.
.	.	.	.	12d\J	.	.	.	.	.	.	.
=21	=21	=21	=21	=21	=21	=21	=21	=21	=21	=21	=21
.	.	.	.	16qqA\LL	.	.	.	.	.	.	.
.	.	.	.	16qqB\JJ	.	.	.	.	.	.	.
8r	.	2ryy	2ryy	4c\	.	2ryy	2ryy	2ryy	2ryy	2ryy	8r
8AA|/L	x x 6	.	.	.	.	.	.	.	.	.	8AA|/L
8C|/	.	.	.	[4AA/	-al-	.	.	.	.	.	8C|/
8F#|/J	.	.	.	.	.	.	.	.	.	.	8F#|/J
!	!	!	!	!	!	!	!	!	!	!	!LO:LB:g=original
=22	=22	=22	=22	=22	=22	=22	=22	=22	=22	=22	=22
!	!	!	!	!LO:TUP:b	!	!	!	!	!	!	!
4A\	x x 6	2ryy	2ryy	12AA/L]	.	2ryy	2ryy	2ryy	2ryy	2ryy	4A\
.	.	.	.	12C|/	.	.	.	.	.	.	.
.	.	.	.	12F#|/J	.	.	.	.	.	.	.
!	!	!	!	!LO:TUP:a:problem:klamra łukowa	!	!	!	!	!	!	!
4r	.	.	.	12A\L	.	.	.	.	.	.	4r
.	.	.	.	12B\	.	.	.	.	.	.	.
.	.	.	.	12c\J	.	.	.	.	.	.	.
=23	=23	=23	=23	=23	=23	=23	=23	=23	=23	=23	=23
.	.	.	.	16qqG\LL	.	.	.	.	.	.	.
.	.	.	.	16qqA\JJ	.	.	.	.	.	.	.
8r	.	2ryy	2ryy	4B\	-ta-	2ryy	2ryy	2ryy	2ryy	2ryy	8r
8GG|/L	.	.	.	.	.	.	.	.	.	.	8GG|/L
8BB|/	.	.	.	[4GG/	.	.	.	.	.	.	8BB|/
8D|/J	.	.	.	.	.	.	.	.	.	.	8D|/J
=24	=24	=24	=24	=24	=24	=24	=24	=24	=24	=24	=24
4G\	.	2ryy	2ryy	12GG/L]	.	2ryy	2ryy	2ryy	2ryy	2ryy	4G\
.	.	.	.	12BB|/	.	.	.	.	.	.	.
.	.	.	.	12D|/J	.	.	.	.	.	.	.
!	!	!	!	!LO:LB:g=original	!	!	!	!	!	!	!
!	!	!	!	!LO:TUP:a:problem:klamra łukowa	!	!	!	!	!	!	!
4r	.	.	.	12G\L	vit	.	.	.	.	.	4r
.	.	.	.	12A\	.	.	.	.	.	.	.
.	.	.	.	12B\J	.	.	.	.	.	.	.
=25	=25	=25	=25	=25	=25	=25	=25	=25	=25	=25	=25
4.D\	.	2ryy	2ryy	8.AT\L	hu-	2ryy	2ryy	2ryy	2ryy	2ryy	4.D/
.	.	.	.	16G\Jk	.	.	.	.	.	.	.
.	.	.	.	8.F#t\	.	.	.	.	.	.	.
8E\	x x #6|	.	.	.	.	.	.	.	.	.	8E\
.	.	.	.	16E\	-mi-	.	.	.	.	.	.
!LO:LB:g=original	!	!	!	!	!	!	!	!	!	!	!
=26	=26	=26	=26	=26	=26	=26	=26	=26	=26	=26	=26
8F#\L	x x 6	2ryy	2ryy	4D/	-les	2ryy	2ryy	2ryy	2ryy	2ryy	8F#\L
8E\	x x 7	.	.	.	.	.	.	.	.	.	8E\
8D\	x x 8	.	.	4r	.	.	.	.	.	.	8D\
8C#X\J	x x 6	.	.	.	.	.	.	.	.	.	8C#X\J
=27	=27	=27	=27	=27	=27	=27	=27	=27	=27	=27	=27
4D\	.	2ryy	2ryy	8r	.	2ryy	2ryy	2ryy	2ryy	2ryy	4D/
.	.	.	.	8A\	e-	.	.	.	.	.	.
4r	.	.	.	8B\	-su-	.	.	.	.	.	4r
.	.	.	.	8c#X\	-ri-	.	.	.	.	.	.
=28	=28	=28	=28	=28	=28	=28	=28	=28	=28	=28	=28
*	*	*	*	*2\right	*	*	*	*	*	*	*
8r	.	2ryy	2ryy	2dT\	-en-	2ryy	2ryy	2ryy	2ryy	2ryy	8r
8D\L	.	.	.	.	.	.	.	.	.	.	8D\L
8F#\	x x 6	.	.	.	.	.	.	.	.	.	8F#\
8G#X\J	x 6 5	.	.	.	.	.	.	.	.	.	8G#X\J
=29	=29	=29	=29	=29	=29	=29	=29	=29	=29	=29	=29
4A\	x x #	2ryy	2ryy	8c#X\	-tes	2ryy	2ryy	2ryy	2ryy	2ryy	4A\
.	.	.	.	8AA/	im-	.	.	.	.	.	.
!	!	!	!	!LO:LB:g=original	!	!	!	!	!	!	!
4r	.	.	.	8C#X/	-ple-	.	.	.	.	.	4r
.	.	.	.	8E\	-vit	.	.	.	.	.	.
=30	=30	=30	=30	=30	=30	=30	=30	=30	=30	=30	=30
8r	.	2ryy	2ryy	2GT\	bo-	2ryy	2ryy	2ryy	2ryy	2ryy	8r
8BB/L	x x n6	.	.	.	.	.	.	.	.	.	8BB/L
8C#X/	x 6 5	.	.	.	.	.	.	.	.	.	8C#X/
8AA/J	.	.	.	.	.	.	.	.	.	.	8AA/J
!	!	!	!	!	!	!	!	!	!	!	!LO:LB:g=original
=31	=31	=31	=31	=31	=31	=31	=31	=31	=31	=31	=31
4D\	.	2ryy	2ryy	8F#\	-nis	2ryy	2ryy	2ryy	2ryy	2ryy	4D/
.	.	.	.	8D/	et	.	.	.	.	.	.
4r	.	.	.	8F#\	di-	.	.	.	.	.	4r
.	.	.	.	8A\	-vi-	.	.	.	.	.	.
=32	=32	=32	=32	=32	=32	=32	=32	=32	=32	=32	=32
8r	.	2ryy	2ryy	2cnT\	-tes	2ryy	2ryy	2ryy	2ryy	2ryy	8r
8E\L	x x n6	.	.	.	.	.	.	.	.	.	8E\L
8F#\	x 6 5	.	.	.	.	.	.	.	.	.	8F#\
8D\J	.	.	.	.	.	.	.	.	.	.	8D\J
=33	=33	=33	=33	=33	=33	=33	=33	=33	=33	=33	=33
*	*	*	*	*Xtuplet	*	*	*	*	*	*	*
!	!	!	!	!LO:TUP:a:problem:klamra łukowa	!	!	!	!	!	!	!
4GG/	.	2ryy	2ryy	12B\L	di-	2ryy	2ryy	2ryy	2ryy	2ryy	4GG/
.	.	.	.	12A\	.	.	.	.	.	.	.
.	.	.	.	12G\J	.	.	.	.	.	.	.
!	!	!	!	!LO:TUP:a:problem:klamra łukowa	!	!	!	!	!	!	!
4G\	x #4| 2	.	.	12c#X\L	-mi-	.	.	.	.	.	4G\
.	.	.	.	12B\	.	.	.	.	.	.	.
.	.	.	.	12A\J	.	.	.	.	.	.	.
!LO:LB:g=original	!	!	!	!	!	!	!	!	!	!	!
=34	=34	=34	=34	=34	=34	=34	=34	=34	=34	=34	=34
4F#\	x x 6	2ryy	2ryy	8d\	-sit	2ryy	2ryy	2ryy	2ryy	2ryy	4F#\
.	.	.	.	8D/	in-	.	.	.	.	.	.
!	!	!	!	!LO:TX:t=P:problem:mixed beam	!	!	!	!	!	!	!
4G\	x 6 5	.	.	8B\L	-a-	.	.	.	.	.	4G\
.	.	.	.	8GG/J	.	.	.	.	.	.	.
!	!	!	!	!LO:PB:g=original	!	!	!	!	!	!	!
=35	=35	=35	=35	=35	=35	=35	=35	=35	=35	=35	=35
8A\L	x 5 4	2ryy	2ryy	4.AA/	.	2ryy	2ryy	2ryy	2ryy	2ryy	8A\L
8A\	.	.	.	.	.	.	.	.	.	.	8A\
8A\	.	.	.	.	.	.	.	.	.	.	8A\
8A\J	.	.	.	(16D\LL	.	.	.	.	.	.	8A\J
.	.	.	.	16E\JJ)	.	.	.	.	.	.	.
=36	=36	=36	=36	=36	=36	=36	=36	=36	=36	=36	=36
.	.	.	.	8qqF#/	.	.	.	.	.	.	.
8AA/L	x x #	2ryy	2ryy	2ET\	.	2ryy	2ryy	2ryy	2ryy	2ryy	8AA/L
8AA/	.	.	.	.	.	.	.	.	.	.	8AA/
8AA/	x x 7	.	.	.	.	.	.	.	.	.	8AA/
8AA/J	.	.	.	.	.	.	.	.	.	.	8AA/J
=37	=37	=37	=37	=37	=37	=37	=37	=37	=37	=37	=37
4DD/	.	2ryy	2ryy	4D/	-nes	2ryy	2ryy	2ryy	2ryy	2ryy	4DD/
4r	.	.	.	4A\	sus-	.	.	.	.	.	4r
=38	=38	=38	=38	=38	=38	=38	=38	=38	=38	=38	=38
!LO:TX:a:t=1.	!	!	!	!	!	!	!	!	!	!	!
2r	.	2ryy	2ryy	(16G\KL	-ce-	2ryy	2ryy	2ryy	2ryy	2ryy	2r
.	.	.	.	8.F#\J)	.	.	.	.	.	.	.
.	.	.	.	(16E\KL	-pit	.	.	.	.	.	.
.	.	.	.	8.D\J)	.	.	.	.	.	.	.
=39	=39	=39	=39	=39	=39	=39	=39	=39	=39	=39	=39
4r	.	2ryy	2ryy	4.c\	Is-	2ryy	2ryy	2ryy	2ryy	2ryy	4r
4A\	x x 6	.	.	.	.	.	.	.	.	.	4A\
.	.	.	.	8c\	-ra-	.	.	.	.	.	.
!	!	!	!	!	!	!	!	!	!	!	!LO:LB:g=original
=40	=40	=40	=40	=40	=40	=40	=40	=40	=40	=40	=40
8F#\L	x 6 5	2ryy	2ryy	2c\	-el	2ryy	2ryy	2ryy	2ryy	2ryy	8F#|\L
!LO:TX:t=P:problem:niejednoznaczny zapis, przyjęto |	!	!	!	!	!	!	!	!	!	!	!
8A|\J	.	.	.	.	.	.	.	.	.	.	8A|\J
8D\L	x x 7	.	.	.	.	.	.	.	.	.	8D|\L
!LO:TX:t=P:problem:niejednoznaczny zapis, przyjęto |	!	!	!	!	!	!	!	!	!	!	!
8F#|\J	.	.	.	.	.	.	.	.	.	.	8F#|\J
=41	=41	=41	=41	=41	=41	=41	=41	=41	=41	=41	=41
4G\	.	2ryy	2ryy	4.B\	pu-	2ryy	2ryy	2ryy	2ryy	2ryy	4G\
4E\	.	.	.	.	.	.	.	.	.	.	4E\
.	.	.	.	8B\	-e-	.	.	.	.	.	.
=42	=42	=42	=42	=42	=42	=42	=42	=42	=42	=42	=42
4F#\	x x 7	2ryy	2ryy	2A\	-rum	2ryy	2ryy	2ryy	2ryy	2ryy	4F#\
4BB/	x 7 #	.	.	.	.	.	.	.	.	.	4BB/
!LO:LB:g=original	!	!	!	!	!	!	!	!	!	!	!
=43	=43	=43	=43	=43	=43	=43	=43	=43	=43	=43	=43
4.E\	.	2ryy	2ryy	8.G\L	su-	2ryy	2ryy	2ryy	2ryy	2ryy	4.E\
.	.	.	.	16F#\Jk	.	.	.	.	.	.	.
.	.	.	.	4E\	-um	.	.	.	.	.	.
8F#\	x x 7	.	.	.	.	.	.	.	.	.	8F#\
=44	=44	=44	=44	=44	=44	=44	=44	=44	=44	=44	=44
!	!	!	!	!LO:TX:a:t=1.	!	!	!	!	!	!	!
8G\L	x x 6	2ryy	2ryy	2r	.	2ryy	2ryy	2ryy	2ryy	2ryy	8G\L
8F#\	x x 7	.	.	.	.	.	.	.	.	.	8F#\
8E\	x x 8	.	.	.	.	.	.	.	.	.	8E\
8D#X\J	x x 6	.	.	.	.	.	.	.	.	.	8D#X\J
!	!	!	!	!LO:LB:g=original	!	!	!	!	!	!	!
=45	=45	=45	=45	=45	=45	=45	=45	=45	=45	=45	=45
*	*	*	*	*tuplet	*	*	*	*	*	*	*
2E\	.	2ryy	2ryy	12G\L	re-	2ryy	2ryy	2ryy	2ryy	2ryy	2E\
.	.	.	.	12E\	.	.	.	.	.	.	.
.	.	.	.	12F#\J	.	.	.	.	.	.	.
.	.	.	.	12G\L	.	.	.	.	.	.	.
.	.	.	.	12A\	.	.	.	.	.	.	.
.	.	.	.	12B\J	.	.	.	.	.	.	.
=46	=46	=46	=46	=46	=46	=46	=46	=46	=46	=46	=46
*	*	*	*	*Xtuplet	*	*	*	*	*	*	*
!	!	!	!	!LO:TX:t=P:problem:mixed beam	!	!	!	!	!	!	!
2AA/	.	2ryy	2ryy	12c\L	.	2ryy	2ryy	2ryy	2ryy	2ryy	2AA/
.	.	.	.	12AA/	.	.	.	.	.	.	.
.	.	.	.	12BB/J	.	.	.	.	.	.	.
.	.	.	.	12C/L	.	.	.	.	.	.	.
.	.	.	.	12D/	.	.	.	.	.	.	.
.	.	.	.	12E/J	.	.	.	.	.	.	.
=47	=47	=47	=47	=47	=47	=47	=47	=47	=47	=47	=47
2D\	.	2ryy	2ryy	12F#\L	.	2ryy	2ryy	2ryy	2ryy	2ryy	2D/
.	.	.	.	12D\	.	.	.	.	.	.	.
.	.	.	.	12E\J	.	.	.	.	.	.	.
.	.	.	.	12F#\L	.	.	.	.	.	.	.
.	.	.	.	12G\	.	.	.	.	.	.	.
.	.	.	.	12A\J	.	.	.	.	.	.	.
=48	=48	=48	=48	=48	=48	=48	=48	=48	=48	=48	=48
!	!	!	!	!LO:TX:t=P:problem:mixed beam	!	!	!	!	!	!	!
2GG/	.	2ryy	2ryy	12B\L	.	2ryy	2ryy	2ryy	2ryy	2ryy	2GG/
.	.	.	.	12GG/	.	.	.	.	.	.	.
.	.	.	.	12AA/J	.	.	.	.	.	.	.
.	.	.	.	12BB/L	.	.	.	.	.	.	.
.	.	.	.	12C/	.	.	.	.	.	.	.
.	.	.	.	12D/J	.	.	.	.	.	.	.
=49	=49	=49	=49	=49	=49	=49	=49	=49	=49	=49	=49
4C/	.	2ryy	2ryy	(8E\L	.	2ryy	2ryy	2ryy	2ryy	2ryy	4C/
.	.	.	.	8D#X\J)	.	.	.	.	.	.	.
8r	.	.	.	4E\	cor-	.	.	.	.	.	8r
8C/	.	.	.	.	.	.	.	.	.	.	8C/
!	!	!	!	!	!	!	!	!	!	!	!LO:LB:g=original
=50	=50	=50	=50	=50	=50	=50	=50	=50	=50	=50	=50
4BB/	x 6 4	2ryy	2ryy	(8E\L	-dan-	2ryy	2ryy	2ryy	2ryy	2ryy	4BB/
.	.	.	.	8D#X\J)	.	.	.	.	.	.	.
!	!	!	!	!LO:LB:g=original	!	!	!	!	!	!	!
8r	.	.	.	8E\	-tus	.	.	.	.	.	8r
8BB/	x 6 4	.	.	8G\	mi-	.	.	.	.	.	8BB/
=51	=51	=51	=51	=51	=51	=51	=51	=51	=51	=51	=51
4AA/	x 6 5	2ryy	2ryy	8F#\	-se-	2ryy	2ryy	2ryy	2ryy	2ryy	4AA/
.	.	.	.	8G\	-ri-	.	.	.	.	.	.
8r	.	.	.	[4F#\	-cor-	.	.	.	.	.	8r
8AA/	x 6 5	.	.	.	.	.	.	.	.	.	8AA/
=52	=52	=52	=52	=52	=52	=52	=52	=52	=52	=52	=52
4BB/	x 5 4	2ryy	2ryy	8F#\L]	.	2ryy	2ryy	2ryy	2ryy	2ryy	4BB/
.	.	.	.	8G\J	.	.	.	.	.	.	.
8r	.	.	.	[4F#\	.	.	.	.	.	.	8r
8BB/	x 5 4	.	.	.	.	.	.	.	.	.	8BB/
!LO:LB:g=original	!	!	!	!	!	!	!	!	!	!	!
=53	=53	=53	=53	=53	=53	=53	=53	=53	=53	=53	=53
4C/	6 4 3	2ryy	2ryy	8.F#\L]	.	2ryy	2ryy	2ryy	2ryy	2ryy	4C/
.	.	.	.	16G\Jk	.	.	.	.	.	.	.
4AA#X/	x 6 5	.	.	(8F#\L	-diae	.	.	.	.	.	4AA#X/
.	.	.	.	8E\J)	.	.	.	.	.	.	.
=54	=54	=54	=54	=54	=54	=54	=54	=54	=54	=54	=54
4.BB/	x x #	2ryy	2ryy	4D#X/	su-	2ryy	2ryy	2ryy	2ryy	2ryy	4.BB/
.	.	.	.	4BB/	-ae	.	.	.	.	.	.
8C#X/	x x 7	.	.	.	.	.	.	.	.	.	8C#X/
=55	=55	=55	=55	=55	=55	=55	=55	=55	=55	=55	=55
!	!	!	!	!LO:TX:a:t=1.	!	!	!	!	!	!	!
8D#X/L	x x 6	2ryy	2ryy	2r	.	2ryy	2ryy	2ryy	2ryy	2ryy	8D#X/L
8C#X/	x x 7	.	.	.	.	.	.	.	.	.	8C#X/
8BB/	x 8 #	.	.	.	.	.	.	.	.	.	8BB/
8AA#X/J	x x 6	.	.	.	.	.	.	.	.	.	8AA#X/J
=56	=56	=56	=56	=56	=56	=56	=56	=56	=56	=56	=56
4BB/	x x #	2ryy	2ryy	8r	.	2ryy	2ryy	2ryy	2ryy	2ryy	4BB/
.	.	.	.	8BB/	Si-	.	.	.	.	.	.
4r	.	.	.	8D#X/	-cut	.	.	.	.	.	4r
.	.	.	.	8F#\	lo-	.	.	.	.	.	.
=57	=57	=57	=57	=57	=57	=57	=57	=57	=57	=57	=57
8r	.	2ryy	2ryy	4.A\	-cu-	2ryy	2ryy	2ryy	2ryy	2ryy	8r
8C#X/L	x x 6	.	.	.	.	.	.	.	.	.	8C#X/L
8D#X/	x 6 5	.	.	.	.	.	.	.	.	.	8D#X/
8BB/J	.	.	.	8A\	-tus	.	.	.	.	.	8BB/J
!	!	!	!	!LO:LB:g=original	!	!	!	!	!	!	!LO:LB:g=original
=58	=58	=58	=58	=58	=58	=58	=58	=58	=58	=58	=58
4E\	.	2ryy	2ryy	8G#X\	est	2ryy	2ryy	2ryy	2ryy	2ryy	4E\
.	.	.	.	8E\	ad	.	.	.	.	.	.
4r	.	.	.	8G#X\	Pa-	.	.	.	.	.	4r
.	.	.	.	8B\	-tres	.	.	.	.	.	.
=59	=59	=59	=59	=59	=59	=59	=59	=59	=59	=59	=59
8r	.	2ryy	2ryy	2dn\	nos-	2ryy	2ryy	2ryy	2ryy	2ryy	8r
8F#\L	x x 6	.	.	.	.	.	.	.	.	.	8F#\L
8G#X\	x 6 5	.	.	.	.	.	.	.	.	.	8G#X\
8E\J	.	.	.	.	.	.	.	.	.	.	8E\J
=60	=60	=60	=60	=60	=60	=60	=60	=60	=60	=60	=60
4A\	x x #	2ryy	2ryy	8c#X\	-tros	2ryy	2ryy	2ryy	2ryy	2ryy	4A\
.	.	.	.	8AA/	A-	.	.	.	.	.	.
4r	.	.	.	(8C#X/L	.	.	.	.	.	.	4r
.	.	.	.	8E/J)	.	.	.	.	.	.	.
!LO:LB:g=original	!	!	!	!	!	!	!	!	!	!	!
=61	=61	=61	=61	=61	=61	=61	=61	=61	=61	=61	=61
8r	.	2ryy	2ryy	4.Gn\	.	2ryy	2ryy	2ryy	2ryy	2ryy	8r
8BB/L	x x n6	.	.	.	.	.	.	.	.	.	8BB/L
8C#X/	x 6 5	.	.	.	.	.	.	.	.	.	8C#X/
8AA/J	.	.	.	8G\	-bra-	.	.	.	.	.	8AA/J
=62	=62	=62	=62	=62	=62	=62	=62	=62	=62	=62	=62
4D\	.	2ryy	2ryy	8F#\	-ham	2ryy	2ryy	2ryy	2ryy	2ryy	4D/
.	.	.	.	8D/	et	.	.	.	.	.	.
4r	.	.	.	16F#\	se-	.	.	.	.	.	4r
.	.	.	.	16A\	-mi-	.	.	.	.	.	.
.	.	.	.	8A\	-ni	.	.	.	.	.	.
=63	=63	=63	=63	=63	=63	=63	=63	=63	=63	=63	=63
8r	.	2ryy	2ryy	2cn\	e-	2ryy	2ryy	2ryy	2ryy	2ryy	8r
8E\L	x x n6	.	.	.	.	.	.	.	.	.	8E\L
8F#\	x 6 5	.	.	.	.	.	.	.	.	.	8F#\
8D\J	.	.	.	.	.	.	.	.	.	.	8D\J
=64	=64	=64	=64	=64	=64	=64	=64	=64	=64	=64	=64
!LO:TX:t=P:problem:mixed beam	!	!	!	!	!	!	!	!	!	!	!LO:TX:t=P:problem:mixed beam
8GG/L	.	2ryy	2ryy	2B\	-jus	2ryy	2ryy	2ryy	2ryy	2ryy	8GG/L
8G\	.	.	.	.	.	.	.	.	.	.	8G\
8E\	x 6 5	.	.	.	.	.	.	.	.	.	8E\
8C\J	.	.	.	.	.	.	.	.	.	.	8C\J
!	!	!	!	!LO:LB:g=original	!	!	!	!	!	!	!
=65	=65	=65	=65	=65	=65	=65	=65	=65	=65	=65	=65
8r	.	2ryy	2ryy	2A\	e-	2ryy	2ryy	2ryy	2ryy	2ryy	8r
8F#\L	.	.	.	.	.	.	.	.	.	.	8F#\L
8D#X\	x 6 5	.	.	.	.	.	.	.	.	.	8D#X\
8BB\J	.	.	.	.	.	.	.	.	.	.	8BB\J
=66	=66	=66	=66	=66	=66	=66	=66	=66	=66	=66	=66
4E\	.	2ryy	2ryy	8G\L	-jus	2ryy	2ryy	2ryy	2ryy	2ryy	4E\
.	.	.	.	8D#X\J	.	.	.	.	.	.	.
8r	.	.	.	8E\L	in	.	.	.	.	.	8r
8C/	x x 6	.	.	8A\J	.	.	.	.	.	.	8C/
!	!	!	!	!	!	!	!	!	!	!	!LO:LB:g=original
=67	=67	=67	=67	=67	=67	=67	=67	=67	=67	=67	=67
!LO:TX:t=P:problem:mixed beam	!	!	!	!	!	!	!	!	!	!	!LO:TX:t=P:problem:mixed beam
8BB/L	x x #6|	2ryy	2ryy	(4A\	sae-	2ryy	2ryy	2ryy	2ryy	2ryy	8BB/L
8d|\	.	.	.	.	.	.	.	.	.	.	8d|\
8G#X|\	.	.	.	8G#X\)	.	.	.	.	.	.	8G#X|\
8E|\J	.	.	.	8dn\	-cu-	.	.	.	.	.	8E|\J
!LO:LB:g=original	!	!	!	!	!	!	!	!	!	!	!
=68	=68	=68	=68	=68	=68	=68	=68	=68	=68	=68	=68!|:
!	!	!	!	!	!	!	!	!	!	!	!LO:TX:t=P:problem:znaki ||: :|| dopisane ołówkiem (color=grey)
4.AA/	.	2ryy	2ryy	4c\	-la	2ryy	2ryy	2ryy	2ryy	2ryy	4.AA/
.	.	.	.	4r	.	.	.	.	.	.	.
8BB/	x x #6|	.	.	.	.	.	.	.	.	.	8BB/
=69	=69	=69	=69	=69	=69	=69	=69	=69	=69	=69	=69
!	!	!	!	!	!	!	!	!	!	!	!LO:TX:t=bis:color=grey
8C/L	x x 6	2ryy	2ryy	4.A\	A-	2ryy	2ryy	2ryy	2ryy	2ryy	8C/L
8BB/	x x 7	.	.	.	.	.	.	.	.	.	8BB/
8AA/	x x 8	.	.	.	.	.	.	.	.	.	8AA/
8GG#X/J	x x 6	.	.	8B\	.	.	.	.	.	.	8GG#X/J
=70	=70	=70	=70	=70	=70	=70	=70	=70	=70	=70	=70:|!
!	!	!	!	!	!	!	!	!	!	!	!LO:TX:t=P:problem:brak dwóch taktów; oznaczenie powtórki t. 68-69 wprowadzone ołówkiem
4.AA/	.	2ryy	2ryy	(8c\L	.	2ryy	2ryy	2ryy	2ryy	2ryy	4.AA/yy
.	.	.	.	8B\J)	.	.	.	.	.	.	.
.	.	.	.	8A\	.	.	.	.	.	.	.
8BB/	x x #6|	.	.	8G#X\	-bra-	.	.	.	.	.	8BB/yy
=71	=71	=71	=71	=71	=71	=71	=71	=71	=71	=71	=71
8C/L	x x 6	2ryy	2ryy	4.A\	-ham	2ryy	2ryy	2ryy	2ryy	2ryy	8C/Lyy
8BB/	x x 7	.	.	.	.	.	.	.	.	.	8BB/yy
8AA/	x x 8	.	.	.	.	.	.	.	.	.	8AA/yy
8GG#X/J	x x 6	.	.	8B\	et	.	.	.	.	.	8GG#X/Jyy
=72	=72	=72	=72	=72	=72	=72	=72	=72	=72	=72	=72
4.AA/	.	2ryy	2ryy	16c\	se-	2ryy	2ryy	2ryy	2ryy	2ryy	4.AA/
.	.	.	.	16c\	-mi-	.	.	.	.	.	.
.	.	.	.	8B\	-ni	.	.	.	.	.	.
!	!	!	!	!LO:LB:g=original	!	!	!	!	!	!	!
.	.	.	.	8A\	e-	.	.	.	.	.	.
8BB/	x x #6|	.	.	8G#X\	-jus	.	.	.	.	.	8BB/
=73	=73	=73	=73	=73	=73	=73	=73	=73	=73	=73	=73
4C/	x x 65	2ryy	2ryy	8A\L	e-	2ryy	2ryy	2ryy	2ryy	2ryy	4C/
.	.	.	.	8Gn\J	.	.	.	.	.	.	.
[4AA/	x x 65	.	.	8F#\L	.	.	.	.	.	.	[4AA/
.	.	.	.	8E\J	.	.	.	.	.	.	.
=74	=74	=74	=74	=74	=74	=74	=74	=74	=74	=74	=74
4AA/]	x #4| 2	2ryy	2ryy	8D#X/L	.	2ryy	2ryy	2ryy	2ryy	2ryy	4AA/]
.	.	.	.	8BB/J	.	.	.	.	.	.	.
8GGn/L	x x 6	.	.	8E\	-jus	.	.	.	.	.	8GGn/L
8AA/J	.	.	.	8AA/	in	.	.	.	.	.	8AA/J
=75	=75	=75	=75	=75	=75	=75	=75	=75	=75	=75	=75
8BB/L	x 5 4	2ryy	2ryy	4.BB/	sae-	2ryy	2ryy	2ryy	2ryy	2ryy	8BB/L
8AA/	.	.	.	.	.	.	.	.	.	.	8AA/
8BB/	x x #	.	.	.	.	.	.	.	.	.	8BB/
8BB/J	.	.	.	8BB/	-cu-	.	.	.	.	.	8BB/J
=76	=76	=76	=76	=76	=76	=76	=76	=76	=76	=76	=76
4.E\	.	2ryy	2ryy	4E\	-la.	2ryy	2ryy	2ryy	2ryy	2ryy	4.E\
.	.	.	.	4r	.	.	.	.	.	.	.
8F#\	x x #6|	.	.	.	.	.	.	.	.	.	8F#\
!LO:PB:g=original	!	!	!	!	!	!	!	!	!	!	!LO:LB:g=original
=77	=77	=77	=77	=77	=77	=77	=77	=77	=77	=77	=77
!	!	!	!	!LO:TX:a:t=7.	!	!	!	!	!	!	!
!	!	!	!	!LO:N:vis=00	!	!	!	!	!	!	!
8G|\L	x x 6	2ryy	2ryy	0r	.	2ryy	2ryy	2ryy	2ryy	2ryy	8G|\L
8F#|\	x x 7	.	.	.	.	.	.	.	.	.	8F#|\
8E|\	x x 8	.	.	.	.	.	.	.	.	.	8E|\
8D#X|\J	x x 6	.	.	.	.	.	.	.	.	.	8D#X|\J
=78	=78	=78	=78	=78	=78	=78	=78	=78	=78	=78	=78
8E|\L	x x 6	2ryy	2ryy	.	.	2ryy	2ryy	2ryy	2ryy	2ryy	8E|\L
8Dn|\	x x 7	.	.	.	.	.	.	.	.	.	8Dn|\
8C|\	x x 8	.	.	.	.	.	.	.	.	.	8C|\
8BB|\J	x x 6	.	.	.	.	.	.	.	.	.	8BB|\J
=79	=79	=79	=79	=79	=79	=79	=79	=79	=79	=79	=79
8C|/L	x x 6	2ryy	2ryy	.	.	2ryy	2ryy	2ryy	2ryy	2ryy	8C|/L
8BB|/	x x 7	.	.	.	.	.	.	.	.	.	8BB|/
8AA|/	x x 8	.	.	.	.	.	.	.	.	.	8AA|/
8GG#X|/J	x x 6	.	.	.	.	.	.	.	.	.	8GG#X|/J
=80	=80	=80	=80	=80	=80	=80	=80	=80	=80	=80	=80
!LO:TX:t=P:problem:mixed beam	!	!	!	!	!	!	!	!	!	!	!LO:TX:t=P:problem:mixed beam
8AA/L	x x 6	2ryy	2ryy	.	.	2ryy	2ryy	2ryy	2ryy	2ryy	8AA|>/L
8Gn|\	.	.	.	.	.	.	.	.	.	.	8Gn|\
8F#|\	.	.	.	.	.	.	.	.	.	.	8F#|\
8E|\J	.	.	.	.	.	.	.	.	.	.	8E|\J
=81	=81	=81	=81	=81	=81	=81	=81	=81	=81	=81	=81
!	!	!	!	!LO:N:vis=0	!	!	!	!	!	!	!
8D#X\L	x 6 5	2ryy	2ryy	1r	.	2ryy	2ryy	2ryy	2ryy	2ryy	8D#X|\L
8cn|\	.	.	.	.	.	.	.	.	.	.	8cn|\
8B|\	.	.	.	.	.	.	.	.	.	.	8B|\
8A|\J	.	.	.	.	.	.	.	.	.	.	8A|\J
=82	=82	=82	=82	=82	=82	=82	=82	=82	=82	=82	=82
!LO:TX:t=P:problem:mixed beam	!	!	!	!	!	!	!	!	!	!	!LO:TX:t=P:problem:mixed beam
8G\L	x x 6	2ryy	2ryy	.	.	2ryy	2ryy	2ryy	2ryy	2ryy	8G\L
8E\	.	.	.	.	.	.	.	.	.	.	8E\
8B\	x x 4	.	.	.	.	.	.	.	.	.	8B\
8BB/J	x x #	.	.	.	.	.	.	.	.	.	8BB/J
=83	=83	=83	=83	=83	=83	=83	=83	=83	=83	=83	=83
4E\	.	2ryy	2ryy	2r	.	2ryy	2ryy	2ryy	2ryy	2ryy	4E\
4r	.	.	.	.	.	.	.	.	.	.	4r
!	!	!	!	!	!	!	!	!	!	!	!LO:TX:b:t=Seqs Subito Gloria.
==	==	==	==	==	==	==	==	==	==	==	==
*-	*-	*-	*-	*-	*-	*-	*-	*-	*-	*-	*-
!!!system-decoration: [(g1)][(g2)][(g3)][(g4)]g5
!!!RDF**kern: > = above
!!!RDF**kern: < = below
!!!RDF**kern: | = vertical stroke
!!!ENC: Katarzyna Serwa
!!!END: 2022-05-01
!!!AIN: 1 alto 1 bass 2 clrno 1 fagot 1 organ 1 soprn 1 tenor 2 violn
!!!ENC: Marta Opryszak
!!!END: 2022-04-13
